X:1
T:Title
L:1/8
Q:1/4=110
M:3/4
K:G
V:1 treble nm="Church Organ, Staff"
V:1
 B2 .B2 A2- | A2 .A2 G2- | G2 E>F G2 | c2 B4 | d2 d2 c2- | c2 c2 B2- | B2 A3 E | FG A4 | %8
w: By~Mr.~G.~B.~Lissant * *||||||||
 _B2 .=B2 F2- | F2 .A2 G2- | G2 G>A B2 | ^c2 d4 | F2 A3 F | DE F4 | G2 F4 | E2 D4 | D2 A3 ^G | %17
w: |||||||||
 AB G2 B2 | e2 d4 | c2 B4 | B2 B2 A2 | E2 G2 z G | FE D4 | A2 G4 |] %24
w: |||||||

